Dominus_Dark_Funeral/22/apps/firefox.svg

<svg xmlns="http://www.w3.org/2000/svg" width="24" height="24"><path d="M15.62 1l-.12.16-.06.08a8.2 8.2 0 0 0-1.32 3.27 6.43 6.43 0 0 0-.01 1.55c.15.87.52 1.69 1.05 2.39.61.68 1 1.43 1.25 1.97a5.11 5.11 0 0 1 .46 2.92c-.52 2.47-1.97 4.15-4.38 4.16-1.53 0-3.65.23-3.93-1.38h1.57c.87 0 1.57-1.05 2.19-1.22.74-.19 1.74-.15 1.7-.68a1.9 1.9 0 0 0-1.64-.86c-.34 0-.64.01-1.26.2-.62.2-.97.36-1.35.25-1.6-.39-3.1-1.74-2.32-2.8.47-.02 1.28.3 1.58.5.28-.28-.34-.71-.43-1.1 0-.5 1.13-.8 1.54-.98l.58-.28c.11-.07.33-.28.41-.4.14-.2.23-.57.17-.7-.07-.17.17-.28-.94-.38-.41-.03-.7-.23-.92-.62-.38-.9.7-2.78 1.19-3.23-.78-.43-1.94 1.05-2.4 1.5-.15.14-.1.14-.55.02l-.1-.02-.03-.01-.06-.02h-.05l-.05-.02h-.05l-.04-.01a5.72 5.72 0 0 0-.78-.07H6.4a4.09 4.09 0 0 0-.35.01h-.01l-.1.02H5.9a.93.93 0 0 0-.4.1c-.39-.67-.76-2.28-1.06-2.95-.7.38-.91 2.95-1.03 3.57-.05.25-.1.74-.1.91v.05a10.54 10.54 0 0 0-1.62 5.62A10.4 10.4 0 0 0 12 23a10.4 10.4 0 0 0 10.31-10.48c0-3.66-1.61-5.55-3.21-8.12a7.22 7.22 0 0 1-.7-1.3c-.2.26-.3 1.26-.42 1.57-.8-1.14-1.8-2.26-2.33-3.52z" fill="#e6e6e6"/></svg>

<?xml version="1.0" encoding="UTF-8" standalone="no"?>
<svg
   xmlns:dc="http://purl.org/dc/elements/1.1/"
   xmlns:cc="http://creativecommons.org/ns#"
   xmlns:rdf="http://www.w3.org/1999/02/22-rdf-syntax-ns#"
   xmlns:svg="http://www.w3.org/2000/svg"
   xmlns="http://www.w3.org/2000/svg"
   xmlns:sodipodi="http://sodipodi.sourceforge.net/DTD/sodipodi-0.dtd"
   xmlns:inkscape="http://www.inkscape.org/namespaces/inkscape"
   width="24"
   height="24"
   version="1.1"
   id="svg4"
   sodipodi:docname="firefox.svg"
   inkscape:version="0.92.4 (5da689c313, 2019-01-14)">
  <metadata
     id="metadata10">
    <rdf:RDF>
      <cc:Work
         rdf:about="">
        <dc:format>image/svg+xml</dc:format>
        <dc:type
           rdf:resource="http://purl.org/dc/dcmitype/StillImage" />
        <dc:title></dc:title>
      </cc:Work>
    </rdf:RDF>
  </metadata>
  <defs
     id="defs8" />
  <sodipodi:namedview
     pagecolor="#ffffff"
     bordercolor="#666666"
     borderopacity="1"
     objecttolerance="10"
     gridtolerance="10"
     guidetolerance="10"
     inkscape:pageopacity="0"
     inkscape:pageshadow="2"
     inkscape:window-width="1142"
     inkscape:window-height="480"
     id="namedview6"
     showgrid="false"
     inkscape:zoom="9.8333333"
     inkscape:cx="1.2711864"
     inkscape:cy="12"
     inkscape:window-x="0"
     inkscape:window-y="25"
     inkscape:window-maximized="0"
     inkscape:current-layer="svg4" />
  <path
     d="M 15.62,1 15.5,1.16 15.44,1.24 a 8.2,8.2 0 0 0 -1.32,3.27 6.43,6.43 0 0 0 -0.01,1.55 c 0.15,0.87 0.52,1.69 1.05,2.39 0.61,0.68 1,1.43 1.25,1.97 a 5.11,5.11 0 0 1 0.46,2.92 c -0.52,2.47 -1.97,4.15 -4.38,4.16 -1.53,0 -3.65,0.23 -3.93,-1.38 h 1.57 c 0.87,0 1.57,-1.05 2.19,-1.22 0.74,-0.19 1.74,-0.15 1.7,-0.68 a 1.9,1.9 0 0 0 -1.64,-0.86 c -0.34,0 -0.64,0.01 -1.26,0.2 -0.62,0.2 -0.97,0.36 -1.35,0.25 -1.6,-0.39 -3.1,-1.74 -2.32,-2.8 0.47,-0.02 1.28,0.3 1.58,0.5 0.28,-0.28 -0.34,-0.71 -0.43,-1.1 0,-0.5 1.13,-0.8 1.54,-0.98 L 10.72,9.15 C 10.83,9.08 11.05,8.87 11.13,8.75 11.27,8.55 11.36,8.18 11.3,8.05 11.23,7.88 11.47,7.77 10.36,7.67 9.95,7.64 9.66,7.44 9.44,7.05 9.06,6.15 10.14,4.27 10.63,3.82 9.85,3.39 8.69,4.87 8.23,5.32 8.08,5.46 8.13,5.46 7.68,5.34 L 7.58,5.32 7.55,5.31 7.49,5.29 H 7.44 L 7.39,5.27 H 7.34 L 7.3,5.26 A 5.72,5.72 0 0 0 6.52,5.19 H 6.4 A 4.09,4.09 0 0 0 6.05,5.2 H 6.04 L 5.94,5.22 H 5.9 A 0.93,0.93 0 0 0 5.5,5.32 C 5.11,4.65 4.74,3.04 4.44,2.37 3.74,2.75 3.53,5.32 3.41,5.94 3.36,6.19 3.31,6.68 3.31,6.85 V 6.9 A 10.54,10.54 0 0 0 1.69,12.52 10.4,10.4 0 0 0 12,23 10.4,10.4 0 0 0 22.31,12.52 C 22.31,8.86 20.7,6.97 19.1,4.4 A 7.22,7.22 0 0 1 18.4,3.1 C 18.2,3.36 18.1,4.36 17.98,4.67 17.18,3.53 16.18,2.41 15.65,1.15 Z"
     id="path2"
     inkscape:connector-curvature="0"
     style="fill:#e6e6e6" />
</svg>
